Bloom-Colors/scalable/apps/spacer-symbolic.svg

<svg width="16" height="16" version="1.1" xmlns="http://www.w3.org/2000/svg">
<path d="m0 2v12h2v-12h-2zm14 0v12h2v-12h-2zm-8 3-3 3 3 3v-2h4v2l3-3-3-3v2h-4v-2z" fill="#666"/>
</svg>

<svg xmlns="http://www.w3.org/2000/svg" width="16" height="16" version="1.1">
 <path style="fill:#444444" d="M 0 2 L 0 14 L 2 14 L 2 2 L 0 2 z M 14 2 L 14 14 L 16 14 L 16 2 L 14 2 z M 6 5 L 3 8 L 6 11 L 6 9 L 10 9 L 10 11 L 13 8 L 10 5 L 10 7 L 6 7 L 6 5 z"/>
</svg>
